X:20
T:Paddy's Return
R:Jig
A:Ireland
M:6/8
K:D
AFD DFA|B2d BAF|ABA F2E|FEE E2B|
AFD DFA|B2d BAF|ABA F2E|1 FDD D2B:|2 FDD D2e||
|:fdd dcd|fdd d2e|~f3 def|~g2f efg|fed B2d|
A2B F2G|ABA F2E|1 FDD D2g:|2 FDD D2B||
